X:1
T:Title
%%score { ( 1 3 ) | ( 2 4 ) }
L:1/8
M:4/4
K:G
V:1 treble nm="Grand Piano"
V:3 treble 
V:2 treble 
V:4 treble 
V:1
 z4 z2[Q:1/4=100] GA | B2 B2 BAGB | d2 e2 d2 BA | G2 G2 E2 A2 | [FA]6 GA | B2 B2 BAGB | %6
 d2 e2 d2 BB | A A3 B2 ^c2 | [Fd]6 z2 | d d3 e3 B | d8 | d d3 e3 B | c8 | %13
 [FA] [FA]2 [GB] [Ac][^GB] [Ac]2 | [GB] [GB]2 [Ac] [Bd][_B^c] [=Bd]2 | A d3 e3 ^c | %16
 [DFd]2 de dcBc | d d3 e3 B | d8 | d d3 e3 B | c8 | [FA] [FA]2 [GB] [Ac][^GB] [Ac]2 | %22
 [GB] [GB]2 [Ac] [Bd][_B^c] [=Bd]2 | [Ge] [Ge]3 [Fd]2 [Fd]2 |[M:3/4] [DG]6 |] %25
V:2
 z4 z2 [G,B,][G,CG] | [G,DG]2 [G,DG]2 [G,DG][G,CG][G,B,][G,DG] | %2
 [G,B,G]2 [G,CG]2 [G,B,G]2 [G,DG][G,CD] | [G,B,D]2 [G,B,D]2 [A,^C]2 [A,CG]2 | %4
 [D,D]6 [G,B,][K:treble][G,CG] | [G,DG]2 [G,DG]2 [G,DG][G,CG][G,B,][G,DG] | %6
 [G,B,G]2 [G,CG]2 [G,B,G]2 [G,DG][G,DG] | [A,DF] [A,DF]3 [A,EG]2 [A,EG]2 | D2 z2 z4 | %9
 [G,B,G] [G,B,G]3 [G,B,G]3 [G,DG] | [G,B,G]2[K:bass] [G,B,][A,C] [B,D][A,C] [G,B,]2 | %11
 [G,B,G] [G,B,G]3 [G,B,G]3 [G,DG] | [D,D]2 [D,D][E,D] D-[E,D] [D,D]2 | %13
 [D,D] [D,D]2 [D,D] [D,D][D,D] [D,D]2 | [G,D] [G,D]2 [G,D] [G,G][G,E] [G,D]2 | %15
 [A,DF] [A,DF]3 [A,^CG]3 [A,EG] | D,2 DE DCB,[K:treble]C | [G,B,G] [G,B,G]3 [G,B,G]3 [G,DG] | %18
 [G,B,G]2[K:bass] [G,B,][A,C] [B,D][A,C] [G,B,]2 | [G,B,G] [G,B,G]3 [G,B,G]3 [G,DG] | %20
 [D,D]2 [D,D][E,D] D-[E,D] [D,D]2 | [D,D] [D,D]2 [D,D] [D,D][D,D] [D,D]2 | %22
 [G,D] [G,D]2 [G,D] [G,G][G,E][K:bass] [G,D]2 | [C,C] [C,C]3 [D,C]2 [D,C]2 |[M:3/4] [G,B,]6 |] %25
V:3
 x8 | x8 | x8 | x8 | x8 | x8 | x8 | x8 | z2 DE DCB,C | x8 | z2 GA BA G2 | x8 | F2 FG AG F2 | x8 | %14
 x8 | x8 | x8 | x8 | z2 GA BA G2 | x8 | F2 FG AG F2 | x8 | x8 | x8 |[M:3/4] x6 |] %25
V:4
 x8 | x8 | x8 | x8 | x7[K:treble] x | x8 | x8 | x8 | D,6 z2 | x8 | x2[K:bass] x6 | x8 | %12
 z4 .F,2 z2 | x8 | x8 | x8 | x7[K:treble] x | x8 | x2[K:bass] x6 | x8 | z4 .F,2 z2 | x8 | %22
 x6[K:bass] x2 | x8 |[M:3/4] x6 |] %25

